Numix-GalliumOS/64/mimetypes/application-flash.svg

<svg xmlns="http://www.w3.org/2000/svg" xmlns:xlink="http://www.w3.org/1999/xlink" width="64px" height="64px" viewBox="0 0 64 64" version="1.1">
<g id="surface1">
<path style=" stroke:none;fill-rule:nonzero;fill:rgb(80%,16.078431%,16.078431%);fill-opacity:1;" d="M 10.671875 0 C 9.296875 0 8 1.355469 8 2.789062 L 8 61.210938 C 8 62.566406 9.375 64 10.671875 64 L 53.328125 64 C 54.625 64 56 62.566406 56 61.210938 L 56 18 L 38 0 Z M 10.671875 0 "/>
<path style=" stroke:none;fill-rule:evenodd;fill:rgb(100%,100%,100%);fill-opacity:1;" d="M 19.390625 44.941406 L 20.089844 50.296875 C 20.089844 50.296875 29.308594 53.207031 33.9375 40 L 42 40 L 42 34.101562 L 36.976562 34.101562 C 36.976562 34.101562 39.320312 27.953125 44.511719 27.429688 C 44.511719 27.300781 43.949219 22.332031 43.949219 22.332031 C 43.949219 22.332031 35.394531 21.152344 30.191406 33.835938 C 25.703125 46.25 19.390625 44.941406 19.390625 44.941406 Z M 19.390625 44.941406 "/>
<path style=" stroke:none;fill-rule:nonzero;fill:rgb(0%,0%,0%);fill-opacity:0.196078;" d="M 42 18 L 56 32 L 56 18 Z M 42 18 "/>
<path style=" stroke:none;fill-rule:nonzero;fill:rgb(100%,100%,100%);fill-opacity:0.392157;" d="M 38 0 L 55.984375 18 L 40.757812 18 C 39.410156 18 38 16.574219 38 15.226562 Z M 38 0 "/>
</g>
</svg>

<svg xmlns="http://www.w3.org/2000/svg" viewBox="0 0 64 64">
 <g>
  <path d="m 10.672 0 c -1.375 0 -2.672 1.355 -2.672 2.789 l 0 58.42 c 0 1.355 1.375 2.789 2.672 2.789 l 42.656 0 c 1.297 0 2.672 -1.434 2.672 -2.789 l 0 -43.21 l -18 -18 m -27.328 0" style="fill:#cc2828;fill-opacity:1;stroke:none;fill-rule:nonzero"/>
  <path d="m 19.391 44.941 l 0.699 5.355 c 0 0 9.219 2.91 13.848 -10.297 l 8.06 0 l 0 -5.898 l -5.02 0 c 0 0 2.344 -6.148 7.535 -6.672 c 0 -0.129 -0.563 -5.098 -0.563 -5.098 c 0 0 -8.555 -1.18 -13.758 11.504 c -4.488 12.414 -10.801 11.11 -10.801 11.11 m 0 0" style="fill:#fff;fill-opacity:1;stroke:none;fill-rule:evenodd"/>
  <path d="m 42 18 l 14 14 l 0 -14 m -14 0" style="fill:#000;fill-opacity:0.196;stroke:none;fill-rule:nonzero"/>
  <path d="m 38 0 l 17.984 18 l -15.227 0 c -1.348 0 -2.758 -1.426 -2.758 -2.773 m 0 -15.227" style="fill:#fff;fill-opacity:0.392;stroke:none;fill-rule:nonzero"/>
 </g>
</svg>
